images/our-service-bg.svg

<svg width="1846" height="1128" viewBox="0 0 1846 1128" fill="none" xmlns="http://www.w3.org/2000/svg">
<g clip-path="url(#clip0_722_220)">
<path d="M1251.94 904.07C1246.63 904.07 1242.31 899.749 1242.31 894.44V834.7C1242.31 829.392 1246.63 825.07 1251.94 825.07C1257.12 825.07 1261.44 829.388 1261.44 834.7V894.44C1261.44 899.753 1257.12 904.07 1251.94 904.07Z" stroke="#1E84B5" stroke-opacity="0.2"/>
<path d="M1212.45 864.568C1212.45 859.256 1216.77 854.938 1221.95 854.938H1281.82C1287.12 854.938 1291.32 859.252 1291.32 864.568C1291.32 869.885 1287.12 874.198 1281.82 874.198H1221.95C1216.77 874.198 1212.45 869.881 1212.45 864.568Z" stroke="#1E84B5" stroke-opacity="0.2"/>
<path d="M1815.36 60C1811.17 60 1807.77 56.5909 1807.77 52.4026V7.59745C1807.77 3.40914 1811.17 0 1815.36 0C1819.45 0 1822.86 3.40914 1822.86 7.59745V52.4026C1822.86 56.5909 1819.45 60 1815.36 60Z" fill="#1E84B5" fill-opacity="0.1"/>
<path d="M1785.37 29.9959C1785.37 25.8076 1788.78 22.3984 1792.87 22.3984H1837.77C1841.96 22.3984 1845.27 25.8076 1845.27 29.9959C1845.27 34.1842 1841.96 37.5933 1837.77 37.5933H1792.87C1788.78 37.5933 1785.37 34.1842 1785.37 29.9959Z" fill="#1E84B5" fill-opacity="0.1"/>
<path d="M133.003 1113C129.513 1113 126.672 1110.16 126.672 1106.67V1069.33C126.672 1065.84 129.513 1063 133.003 1063C136.412 1063 139.253 1065.84 139.253 1069.33V1106.67C139.253 1110.16 136.412 1113 133.003 1113Z" fill="#1E84B5" fill-opacity="0.1"/>
<path d="M108 1088C108 1084.51 110.841 1081.67 114.25 1081.67H151.669C155.159 1081.67 157.919 1084.51 157.919 1088C157.919 1091.49 155.159 1094.33 151.669 1094.33H114.25C110.841 1094.33 108 1091.49 108 1088Z" fill="#1E84B5" fill-opacity="0.1"/>
<path d="M1768 1108.45C1751.79 1110.27 1750.37 1111.79 1748.55 1128C1746.73 1111.79 1745.21 1110.27 1729 1108.45C1745.21 1106.63 1746.73 1105.21 1748.55 1089C1750.37 1105.21 1751.79 1106.63 1768 1108.45Z" fill="#1E84B5"/>
<path d="M50 109.935C29.2208 112.273 27.4026 114.221 25.0649 135C22.7273 114.221 20.7792 112.273 0 109.935C20.7792 107.597 22.7273 105.779 25.0649 85C27.4026 105.779 29.2208 107.597 50 109.935Z" fill="#EFF8FF"/>
<path d="M37.5382 108.459C39.8102 109.058 42.532 109.512 45.8047 109.937C42.5314 110.365 39.8091 110.826 37.5364 111.434C34.3609 112.282 32.0186 113.426 30.2607 115.201C28.5032 116.976 27.3763 119.334 26.5406 122.52C25.9425 124.801 25.4879 127.529 25.0631 130.805C24.6352 127.528 24.1738 124.8 23.5667 122.519C22.7184 119.331 21.5747 116.973 19.8007 115.199C18.0267 113.425 15.6689 112.282 12.4816 111.433C10.2004 110.826 7.47158 110.365 4.19531 109.937C7.47098 109.512 10.1993 109.058 12.4798 108.459C15.6662 107.624 18.0244 106.497 19.799 104.739C21.574 102.981 22.7181 100.639 23.5666 97.4636C24.1738 95.1909 24.6352 92.4686 25.0631 89.1953C25.4879 92.468 25.9425 95.1898 26.5407 97.4618C27.3766 100.637 28.5039 102.979 30.2624 104.738C32.021 106.496 34.3636 107.624 37.5382 108.459Z" stroke="#1E84B5" stroke-opacity="0.2"/>
<path d="M216.127 847.116C218.988 847.87 222.545 848.404 227 848.933C222.544 849.463 218.987 850.005 216.127 850.77C212.847 851.646 210.463 852.819 208.683 854.617C206.902 856.415 205.747 858.816 204.883 862.107C204.13 864.978 203.596 868.543 203.067 873C202.537 868.543 201.994 864.977 201.23 862.106C200.354 858.814 199.182 856.413 197.384 854.616C195.587 852.818 193.186 851.646 189.894 850.77C187.023 850.005 183.458 849.463 179 848.933C183.457 848.404 187.022 847.87 189.893 847.116C193.184 846.253 195.586 845.098 197.383 843.317C199.181 841.537 200.354 839.153 201.23 835.873C201.994 833.013 202.537 829.456 203.067 825C203.596 829.455 204.13 833.012 204.883 835.873C205.747 839.151 206.902 841.536 208.683 843.317C210.464 845.098 212.849 846.253 216.127 847.116Z" fill="#EFF8FF" stroke="#1E84B5"/>
</g>
<defs>
<clipPath id="clip0_722_220">
<rect width="1846" height="1128" fill="white"/>
</clipPath>
</defs>
</svg>

<svg xmlns="http://www.w3.org/2000/svg" width="1846" height="1128" fill="none" viewBox="0 0 1846 1128"><g clip-path="url(#a)"><path stroke="#1e84b5" stroke-opacity=".2" d="M1251.94 904.07c-5.31 0-9.63-4.321-9.63-9.63V834.7c0-5.308 4.32-9.63 9.63-9.63 5.18 0 9.5 4.318 9.5 9.63v59.74c0 5.313-4.32 9.63-9.5 9.63Z"/><path stroke="#1e84b5" stroke-opacity=".2" d="M1212.45 864.568c0-5.312 4.32-9.63 9.5-9.63h59.87c5.3 0 9.5 4.314 9.5 9.63s-4.2 9.63-9.5 9.63h-59.87c-5.18 0-9.5-4.317-9.5-9.63Z"/><path fill="#1e84b5" fill-opacity=".1" d="M1815.36 60c-4.19 0-7.59-3.41-7.59-7.597V7.597c0-4.188 3.4-7.597 7.59-7.597 4.09 0 7.5 3.41 7.5 7.597v44.806c0 4.188-3.41 7.597-7.5 7.597"/><path fill="#1e84b5" fill-opacity=".1" d="M1785.37 29.996c0-4.188 3.41-7.598 7.5-7.598h44.9c4.19 0 7.5 3.41 7.5 7.598s-3.31 7.597-7.5 7.597h-44.9c-4.09 0-7.5-3.409-7.5-7.597M133.003 1113a6.34 6.34 0 0 1-6.331-6.33v-37.34c0-3.49 2.841-6.33 6.331-6.33 3.409 0 6.25 2.84 6.25 6.33v37.34c0 3.49-2.841 6.33-6.25 6.33"/><path fill="#1e84b5" fill-opacity=".1" d="M108 1088c0-3.49 2.841-6.33 6.25-6.33h37.419c3.49 0 6.25 2.84 6.25 6.33s-2.76 6.33-6.25 6.33H114.25c-3.409 0-6.25-2.84-6.25-6.33"/><path fill="#1e84b5" d="M1768 1108.45c-16.21 1.82-17.63 3.34-19.45 19.55-1.82-16.21-3.34-17.73-19.55-19.55 16.21-1.82 17.73-3.24 19.55-19.45 1.82 16.21 3.24 17.63 19.45 19.45"/><path fill="#eff8ff" d="M50 109.935c-20.78 2.338-22.597 4.286-24.935 25.065-2.338-20.779-4.286-22.727-25.065-25.065 20.78-2.338 22.727-4.156 25.065-24.935 2.338 20.779 4.156 22.597 24.935 24.935"/><path stroke="#1e84b5" stroke-opacity=".2" d="M37.538 108.459c2.272.599 4.994 1.053 8.267 1.478-3.274.428-5.996.889-8.269 1.497-3.175.848-5.517 1.992-7.275 3.767s-2.885 4.133-3.72 7.319c-.599 2.281-1.053 5.009-1.478 8.285-.428-3.277-.89-6.005-1.496-8.286-.849-3.188-1.992-5.546-3.766-7.32s-4.132-2.917-7.32-3.766c-2.28-.607-5.01-1.068-8.286-1.496 3.276-.425 6.004-.879 8.285-1.478 3.186-.835 5.544-1.962 7.319-3.72s2.92-4.1 3.768-7.275c.607-2.273 1.068-4.995 1.496-8.269.425 3.273.88 5.995 1.478 8.267.836 3.175 1.963 5.517 3.721 7.276s4.102 2.886 7.276 3.721Z"/><path fill="#eff8ff" stroke="#1e84b5" d="M216.127 847.116c2.861.754 6.418 1.288 10.873 1.817-4.456.53-8.013 1.072-10.873 1.837-3.28.876-5.664 2.049-7.444 3.847s-2.936 4.199-3.8 7.49c-.753 2.871-1.287 6.436-1.816 10.893-.53-4.457-1.073-8.023-1.837-10.894-.876-3.292-2.048-5.693-3.846-7.49-1.797-1.798-4.198-2.97-7.49-3.846-2.871-.765-6.436-1.307-10.894-1.837 4.457-.529 8.022-1.063 10.893-1.817 3.291-.863 5.693-2.018 7.49-3.799 1.798-1.78 2.971-4.164 3.847-7.444.764-2.86 1.307-6.417 1.837-10.873.529 4.455 1.063 8.012 1.816 10.873.864 3.278 2.019 5.663 3.8 7.444s4.166 2.936 7.444 3.799Z"/></g><defs><clipPath id="a"><path fill="#fff" d="M0 0h1846v1128H0z"/></clipPath></defs></svg>
